dist/svgs/dig-line.svg

<svg xmlns="http://www.w3.org/2000/svg" viewBox="0 0 512 512"><path d="M431 175q13 5 26.5 13.5t24 19.5 17 23.5T505 257q0 6-4 23.5t-10 40-13 47-13 44.5-10.5 33.5L450 459q-3 7-7 16t-11.5 17.5-19.5 14-29 5.5H222q-36 0-54-5t-25-9q-15-7-24.5-22t-9.5-32V249q0-14 5.5-30t13.5-27l39-49q3-5 6-12.5t3-12.5l-1-70q0-26 21-40 23-15 47-4l3 2q16 10 29 25.5t22 34 14 38 5 36.5q0 3-1 13t-3 20zm-31 257q2-5 9.5-30.5T426 346t16-56.5 7-33.5q0-4-9.5-14T413 224H242l16-33 4-10 2-7q2-6 3-16t2-14q0-10-3.5-22T257 98t-12.5-22.5T228 59v64q1 14-4.5 29T210 178l-37 47q-3 4-6 11.5t-3 12.5v187q0 2 2 4.5t3 3.5l6 3q5 2 12 3 12 3 39 3h154q8 0 11-3.5t8-14.5zM42 215q14 0 24 9.5T76 248v231q0 14-10 23t-24 9-23.5-9T9 479V248q0-14 9.5-23.5T42 215z"/></svg>

<?xml version="1.0" encoding="UTF-8" standalone="no"?><svg   xmlns:svg="http://www.w3.org/2000/svg"   xmlns="http://www.w3.org/2000/svg"   version="1.1"   width="512"   height="512"   viewBox="0 0 512 512">  <path     d="M431 175Q444 180 457.5 188.5T481.5 208T498.5 231.5T505 257Q505 263 501 280.5T491 320.5T478 367.5T465 412T454.5 445.5L450 459Q447 466 443 475T431.5 492.5T412 506.5T383 512H222Q186 512 168 507T143 498Q128 491 118.5 476T109 444V249Q109 235 114.5 219T128 192L167 143Q170 138 173 130.5T176 118L175 48Q175 22 196 8Q219 -7 243 4L246 6Q262 16 275 31.5T297 65.5T311 103.5T316 140Q316 143 315 153T312 173zM400 432Q402 427 409.5 401.5T426 346T442 289.5T449 256Q449 252 439.5 242T413 224H242L258 191L262 181T264 174Q266 168 267 158T269 144Q269 134 265.5 122T257 98T244.5 75.5T228 59V123Q229 137 223.5 152T210 178L173 225Q170 229 167 236.5T164 249V436Q164 438 166 440.5T169 444L175 447Q180 449 187 450Q199 453 226 453H380Q388 453 391 449.5T399 435zM42 215Q56 215 66 224.5T76 248V479Q76 493 66 502T42 511T18.5 502T9 479V248Q9 234 18.5 224.5T42 215z"     id="dig-line" /></svg>
